X:1
T:The Lord Descended from Above
T:The Lord Descended from Above
T:William Billings, 1778
T:Thomas Sternhold (?-1549)
T:Public Domain Courtesy of the Cyber Hymnal™
T:Public Domain Courtesy of the Cyber Hymnal™
C:William Billings, 1778
Z:Public Domain
Z:Courtesy of the Cyber Hymnal™
%%score ( 1 2 ) ( 3 4 )
L:1/8
M:2/2
K:D
V:1 treble 
V:2 treble 
V:3 bass 
V:4 bass 
V:1
"^Tune in tenor" [DF]4 | A6 [E^G]2 | A4 A4 | [DB]4 [DA]4 | [FA]6 A2 | [Dd]4 ([Dd]2 [Ec]2) | %6
w: 1.~The|Lord de-|sce- nd-|ed from|a- bove,|And bowed *|
w: 2.~And|from a-|bove ~|the Lord|sent down|To fetch *|
 [Fd]4 (e2 c2) | A6 A2 | (G2 B4) G2 | (F2 A4) (dc) | (B4 A2) ^G2 | (z4 z2) x6 | %12
w: the heav- *|ens high;|And * un-|der- * neath *|His * feet||
w: me from *|be- low,|And * plucked|me * out *|of * wa-||
 [DA-]2 [A,F]2 D2 z F | [FA]6 ^G2 | ([FA]2 [EB]2 [DA]2) [CEA]2 | [DFA]8 | z8 | z8 | z4 [DF]4 x2 | %19
w: He * * *|cast The|dark- * * ness|of|||the|
w: ters * * *|great that|would * * me|ov-|||er-|
 [FA]2 [FA]2 [EB]2 (A^G) | ([FA]4- [FA][EG]) ([DF][EG]) | [FA]2 [FA]2 [FA]2 [DF]2 | %22
w: sky. Full roy- al- *|ly * * He *|rode; And on the|
w: flow. That would have *|made * * me *|thrall; Yea, from such|
 [EG]2 [EG]2 [EG]2 [DA]2 | [Dd]2 (AB) [Gc]2 [Fd]2 | (c3 B A2) [EA]2 | [FA]2 [DF]2 [EG]2 [EG]2 | %26
w: wings of all the|winds Came * fly- ing|all * * a-|broad; And on the|
w: foes as were too|strong For * me to|deal * * with-|al; Yea, from such|
 [DF]2 [FA]2 [EG]2 [EG]2 | [DF]2 [DB]2 [DA]2 [CEA]2 | [DFA]8 |] %29
w: wings of all the|winds Came fly- ing|all|
w: foes as were too|strong For me to|deal|
V:2
 x4 | (F2 E2 F2) x2 | E2 D2 A4 | x8 | x6 (FE) | x8 | x4 E4 | F8 | x8 | x8 | x8 | (A6 E4 A2) | %12
 x4 D2 F2 | x6 (E=G) | x8 | x8 | x8 | x8 | x10 | x6 E2 | x8 | x8 | x8 | x2 F2 x4 | E4 x4 | x8 | %26
 x8 | x8 | x8 |] %29
V:3
 [D,A,]4 | ([D,D]2 [A,,C]2 [D,D]2) [E,B,]2 | [A,,A,]2 [D,F,]2 [D,F,]4 | G,4 [F,A,]2 [D,F,]2 | %4
 [D,D]6 [F,C]2 | [G,B,]4 ([F,A,]2 [E,^G,]2) | A,4 (B,2 C2) | D6 A,2 | (B,2 G,2 E,2) B,2 | %9
 (A,2 F,2) D,4 | [E,G,]2 [D,F,]2 [C,E,]2 [B,,D,]2 | [A,,A,]6 [A,,G,]2 x4 | F,2 D,2- F,2 A,2 | %13
 [D,,D,D]6 (CB,) | [F,,F,A,]2 [G,,G,]2 [A,,F,A,]2 [A,,E,]2 | D,8 | z4 [D,,D,]4 | %17
 [F,,F,]2 [D,,D,]2 [E,,E,]2 [G,,G,]2 | [F,,F,]2 [D,,D,]2 A,4 [D,,D,]2 | %19
 [D,,D,D]2 [F,,F,C]2 [G,,G,B,]2 [A,,A,C]2 | [D,,F,D]6 [D,,D,A,]2 | %21
 [D,,D,D]2 [D,,D,D]2 [D,,D,D]2 [F,,F,A,]2 | [E,,E,B,]2 [E,,E,B,]2 [E,,E,B,]2 [D,,D,A,]2 | %23
 [G,,G,B,]2 [F,,F,D]2 [E,,E,C]2 [D,,D,B,]2 | [A,,A,]6 [A,,A,]2 | %25
 [D,,D,D]2 [F,,F,A,]2 [E,,E,B,]2 [E,,E,G,]2 | [F,,F,A,]2 [D,,D,D]2 [E,,E,C]2 [E,,E,B,]2 | %27
 [F,,F,A,]2 G,2 [A,,F,A,]2 [A,,E,]2 | D,8 |] %29
V:4
 x4 | x8 | x8 | G,4 x4 | x8 | x8 | (D,2 F,2) E,4 | D,8 | x8 | x4 D,2 A,2 | x8 | x12 | [D,,-D,]8 | %13
 x6 [E,,E,]2 | x8 | [D,,D,]8 | x8 | x8 | x4 [D,,D,]2 x4 | x8 | x8 | x8 | x8 | x8 | x8 | x8 | x8 | %27
 x2 [G,,G,]2 x4 | [D,,D,]8 |] %29

